build/img/world.svg

<svg width="16" height="16" viewBox="0 0 16 16" fill="none" xmlns="http://www.w3.org/2000/svg">
<g id="world">
<path id="Shape" fill-rule="evenodd" clip-rule="evenodd" d="M11.1122 5.42651C10.6509 3.21118 9.26315 1.54529 8.42105 1.1958V5.53882C9.26315 5.52844 10.3714 5.48547 11.1122 5.42651ZM14.0256 4.96301C13.872 5.01013 13.25 5.18372 12.0197 5.32935C11.7421 3.85291 11.241 2.59473 10.5875 1.6864C12.0856 2.33569 13.3039 3.50452 14.0256 4.96301ZM8.42105 6.51733C9.26315 6.50635 10.4435 6.45996 11.2272 6.3949C11.2918 6.91309 11.3081 7.44946 11.3081 8.0011C11.3081 8.70959 11.2828 9.39673 11.1784 10.046C10.4067 9.98364 9.26315 9.93872 8.42105 9.92871V6.51733ZM8.42105 10.9072V14.8068C9.26315 14.4808 10.51 13.0077 11.0097 11.0125C10.2883 10.9569 9.26315 10.9174 8.42105 10.9072ZM10.5875 14.3163C11.1764 13.4978 11.6455 12.3992 11.9349 11.1088C12.9027 11.2202 13.5125 11.3499 13.8198 11.4274C13.0797 12.7118 11.9466 13.7245 10.5875 14.3163ZM12.1679 6.29675C12.3156 7.57568 12.2957 8.86853 12.1089 10.1423C13.3039 10.2823 13.9834 10.4514 14.2538 10.5303C14.5653 9.74658 14.7422 8.89465 14.7422 8.0011C14.7418 7.11792 14.5702 6.24329 14.2369 5.42542L14.395 5.8717C14.3506 5.88745 13.6808 6.11511 12.1679 6.29675Z" fill="white"/>
</g>
</svg>

<svg width="16" height="16" viewBox="0 0 16 16" fill="none" xmlns="http://www.w3.org/2000/svg"><g id="world"><path id="Shape" fill-rule="evenodd" clip-rule="evenodd" d="M11.112 5.427c-.461-2.216-1.849-3.882-2.691-4.231v4.343a45.81 45.81 0 0 0 2.691-.112zm2.914-.464c-.154.047-.776.22-2.006.366-.278-1.476-.779-2.734-1.432-3.643a6.915 6.915 0 0 1 3.438 3.277zM8.42 6.517a46.485 46.485 0 0 0 2.806-.122c.065.518.081 1.054.081 1.606 0 .709-.025 1.396-.13 2.045a45.91 45.91 0 0 0-2.757-.117V6.517zm0 4.39v3.9c.842-.326 2.089-1.8 2.589-3.795a44.466 44.466 0 0 0-2.589-.105zm2.167 3.41c.588-.82 1.058-1.918 1.347-3.208.968.111 1.577.24 1.885.318a6.918 6.918 0 0 1-3.232 2.89zm1.58-8.02a14.801 14.801 0 0 1-.06 3.845c1.196.14 1.875.31 2.146.388a6.83 6.83 0 0 0 .488-2.529c0-.883-.172-1.758-.505-2.576l.158.447c-.044.015-.714.243-2.227.425z" fill="#fff"/></g></svg>
